X: 21
T:Padraig O'Keefe's Slide in G
M:6/8
L:1/8
R:slide
Z:id:hn-slide-38
K:G
B2d ded|c2e edc|B2d d2B|A2B G2A|
B2d ded|c2e edc|a2g fga|g2d e2d|
B2d ded|c2e edc|B2d d2B|A2B G2A|
B2d ded|c2e edc|a2g fga|g2d g2a||
|b2d b2d|c'2e c'2b|a2g f2g|a2g fed|
b2d b2d|c'2e c'2b|a2g fga|g2d g2a|
|:b2d b2d|c'2e c'2b|a2g f2g|a2g fed|
b2d b2d|c'2e c'2b|a2g fga|g2d e2d||
